images/icon/icon-book.svg

<?xml version="1.0" standalone="no"?>
<!DOCTYPE svg PUBLIC "-//W3C//DTD SVG 1.1//EN" "http://www.w3.org/Graphics/SVG/1.1/DTD/svg11.dtd"><svg t="1670213273216"
  class="icon" viewBox="0 0 1024 1024" version="1.1" xmlns="http://www.w3.org/2000/svg" p-id="16325"
  xmlns:xlink="http://www.w3.org/1999/xlink" width="200" height="200">
  <path
    d="M81.92 174.08a81.92 81.92 0 0 0-81.92 81.92v563.2a81.92 81.92 0 0 0 81.92 81.92h274.87232a225.28 225.28 0 0 1 136.8576 46.336c5.29408 4.0448 11.69408 6.4512 18.35008 6.4512 6.656 0 13.056-2.4064 18.35008-6.4512A225.28 225.28 0 0 1 667.20768 901.12H942.08a81.92 81.92 0 0 0 81.92-81.92V256a81.92 81.92 0 0 0-81.92-81.92H667.20768a225.28 225.28 0 0 0-144.896 52.77696L512 235.52l-10.31168-8.66304A225.28 225.28 0 0 0 356.79232 174.08H81.92z"
    fill="#787878" p-id="16326"></path>
  <path
    d="M81.92 102.4a81.92 81.92 0 0 0-81.92 81.92v563.2a81.92 81.92 0 0 0 81.92 81.92h274.87232a225.28 225.28 0 0 1 136.8576 46.336c5.29408 4.0448 11.69408 6.4512 18.35008 6.4512 6.656 0 13.056-2.4064 18.35008-6.4512A225.28 225.28 0 0 1 667.20768 829.44H942.08a81.92 81.92 0 0 0 81.92-81.92V184.32a81.92 81.92 0 0 0-81.92-81.92H667.20768a225.28 225.28 0 0 0-144.896 52.7872L512 163.84l-10.31168-8.6528A225.28 225.28 0 0 0 356.79232 102.4H81.92z"
    fill="#aeaeae" p-id="16327"></path>
  <path
    d="M665.6 286.72a30.72 30.72 0 0 1 30.72-30.72h204.8a30.72 30.72 0 1 1 0 61.44H696.32a30.72 30.72 0 0 1-30.72-30.72zM665.6 471.04a30.72 30.72 0 0 1 30.72-30.72h204.8a30.72 30.72 0 1 1 0 61.44H696.32a30.72 30.72 0 0 1-30.72-30.72zM665.6 655.36a30.72 30.72 0 0 1 30.72-30.72h204.8a30.72 30.72 0 1 1 0 61.44H696.32a30.72 30.72 0 0 1-30.72-30.72zM92.16 256a30.72 30.72 0 0 1 30.72-30.72h204.8a30.72 30.72 0 1 1 0 61.44H122.88a30.72 30.72 0 0 1-30.72-30.72zM92.16 440.32a30.72 30.72 0 0 1 30.72-30.72h204.8a30.72 30.72 0 1 1 0 61.44H122.88a30.72 30.72 0 0 1-30.72-30.72zM92.16 624.64a30.72 30.72 0 0 1 30.72-30.72h204.8a30.72 30.72 0 1 1 0 61.44H122.88a30.72 30.72 0 0 1-30.72-30.72z"
    fill="#e8e8e8" p-id="16328"></path>
</svg>

<svg class="icon" viewBox="0 0 1024 1024" xmlns="http://www.w3.org/2000/svg" width="200" height="200"><path d="M81.92 174.08A81.92 81.92 0 0 0 0 256v563.2a81.92 81.92 0 0 0 81.92 81.92h274.872a225.28 225.28 0 0 1 136.858 46.336c5.294 4.045 11.694 6.451 18.35 6.451 6.656 0 13.056-2.406 18.35-6.451a225.28 225.28 0 0 1 136.858-46.336H942.08A81.92 81.92 0 0 0 1024 819.2V256a81.92 81.92 0 0 0-81.92-81.92H667.208a225.28 225.28 0 0 0-144.896 52.777L512 235.52l-10.312-8.663a225.28 225.28 0 0 0-144.896-52.777H81.92z" fill="#787878"/><path d="M81.92 102.4A81.92 81.92 0 0 0 0 184.32v563.2a81.92 81.92 0 0 0 81.92 81.92h274.872a225.28 225.28 0 0 1 136.858 46.336c5.294 4.045 11.694 6.451 18.35 6.451 6.656 0 13.056-2.406 18.35-6.451a225.28 225.28 0 0 1 136.858-46.336H942.08a81.92 81.92 0 0 0 81.92-81.92v-563.2a81.92 81.92 0 0 0-81.92-81.92H667.208a225.28 225.28 0 0 0-144.896 52.787L512 163.84l-10.312-8.653A225.28 225.28 0 0 0 356.792 102.4H81.92z" fill="#aeaeae"/><path d="M665.6 286.72A30.72 30.72 0 0 1 696.32 256h204.8a30.72 30.72 0 1 1 0 61.44h-204.8a30.72 30.72 0 0 1-30.72-30.72zm0 184.32a30.72 30.72 0 0 1 30.72-30.72h204.8a30.72 30.72 0 1 1 0 61.44h-204.8a30.72 30.72 0 0 1-30.72-30.72zm0 184.32a30.72 30.72 0 0 1 30.72-30.72h204.8a30.72 30.72 0 1 1 0 61.44h-204.8a30.72 30.72 0 0 1-30.72-30.72zM92.16 256a30.72 30.72 0 0 1 30.72-30.72h204.8a30.72 30.72 0 1 1 0 61.44h-204.8A30.72 30.72 0 0 1 92.16 256zm0 184.32a30.72 30.72 0 0 1 30.72-30.72h204.8a30.72 30.72 0 1 1 0 61.44h-204.8a30.72 30.72 0 0 1-30.72-30.72zm0 184.32a30.72 30.72 0 0 1 30.72-30.72h204.8a30.72 30.72 0 1 1 0 61.44h-204.8a30.72 30.72 0 0 1-30.72-30.72z" fill="#e8e8e8"/></svg>
